Hatter-kde/actions/22/path-effect-parameter-next.svg

<?xml version="1.0" encoding="UTF-8"?>
<svg viewBox="0 0 22 22" xmlns="http://www.w3.org/2000/svg">
 <defs id="defs3051">
  <style id="current-color-scheme" type="text/css">.ColorScheme-Text {
        color:#363636;
      }
      .ColorScheme-Highlight {
        color:#3daee9;
      }</style>
 </defs>
 <path class="ColorScheme-Text" d="m16 3v3h3v-3h-3zm1 1h1v1h-1v-1zm-2.3926 10c0.0295-0.016-0.60742 0.60938-0.60742 0.60938l1.9043 1.8906-1.873 1.9355 0.57617 0.56445 2.3926-2.5-2.3926-2.5zm3.3926 0v5h1v-5h-1zm-15 2v3h3v-3h-3zm1 1h1v1h-1v-1z" fill="currentColor"/>
 <path class="ColorScheme-Highlight" d="m16 4a12 12 0 0 0-12 12h1a11 11 0 0 1 11-11v-1z" fill="currentColor"/>
</svg>

<svg xmlns="http://www.w3.org/2000/svg" viewBox="0 0 22 22">
  <defs id="defs3051">
    <style type="text/css" id="current-color-scheme">
      .ColorScheme-Text {
        color:#363636;
      }
      .ColorScheme-Highlight {
        color:#3daee9;
      }
      </style>
  </defs>
 <path 
     style="fill:currentColor;fill-opacity:1;stroke:none" 
     d="M 16 3 L 16 6 L 19 6 L 19 3 L 16 3 z M 17 4 L 18 4 L 18 5 L 17 5 L 17 4 z M 14.607422 14 C 14.636922 13.984 14 14.609375 14 14.609375 L 15.904297 16.5 L 14.03125 18.435547 L 14.607422 19 L 17 16.5 L 14.607422 14 z M 18 14 L 18 19 L 19 19 L 19 14 L 18 14 z M 3 16 L 3 19 L 6 19 L 6 16 L 3 16 z M 4 17 L 5 17 L 5 18 L 4 18 L 4 17 z "
     class="ColorScheme-Text"
     />
 <path 
     style="fill:currentColor;fill-opacity:1;stroke:none" 
     d="M 16 4 A 12 12 0 0 0 4 16 L 5 16 A 11 11 0 0 1 16 5 L 16 4 z "
     class="ColorScheme-Highlight"
     />
</svg>
